public/jagged-card-tall.svg

<svg width="403" height="575" viewBox="0 0 403 575" fill="none" xmlns="http://www.w3.org/2000/svg">
<path d="M40.4457 16.1239L6.62928 5.04509C5.89372 4.80411 5.1284 5.32163 5.0781 6.09403L4.00428 22.5848C3.99652 22.704 4.00681 22.8236 4.0348 22.9396L8.68958 42.2402C8.71756 42.3562 8.72785 42.4758 8.7201 42.595L5.18448 96.8916C5.17976 96.9641 5.18172 97.0369 5.19033 97.1091L11.6806 151.475C11.6894 151.549 11.6912 151.623 11.6862 151.697L5.17738 246.201C5.17738 252.266 5.88826 265.415 8.7318 269.49C11.5335 273.506 9.96448 279.735 8.78443 282.471C8.7492 282.552 8.72319 282.635 8.70614 282.722L5.2113 300.612C5.18881 300.727 5.18354 300.845 5.19567 300.962L8.7318 334.993L5.18219 438.201C5.179 438.294 5.18675 438.387 5.20529 438.478L8.68788 455.592C8.71691 455.735 8.7194 455.882 8.69522 456.025L5.20658 476.741C5.18722 476.856 5.18493 476.973 5.19979 477.089L8.71634 504.451C8.72662 504.531 8.72871 504.612 8.72257 504.692L5.19436 550.928C5.18314 551.075 5.19948 551.223 5.24254 551.364L8.61899 562.426C8.69229 562.666 8.84001 562.877 9.04082 563.028L19.079 570.564C19.2841 570.718 19.5338 570.801 19.7903 570.801H36.9819C37.1046 570.801 37.2266 570.782 37.3435 570.745L50.616 566.491C50.7329 566.454 50.8549 566.435 50.9776 566.435H87.2996C87.4462 566.435 87.5915 566.462 87.7281 566.515L98.3764 570.646C98.6352 570.746 98.9211 570.753 99.1841 570.664L122.177 562.896C122.371 562.83 122.579 562.816 122.78 562.854L141.319 566.413C141.393 566.427 141.468 566.435 141.543 566.435H201.633C201.78 566.435 201.925 566.462 202.062 566.515L212.727 570.653C212.976 570.749 213.249 570.759 213.504 570.681L227.006 566.534C227.217 566.469 227.442 566.464 227.655 566.521L243.747 570.757C243.859 570.786 243.975 570.799 244.09 570.795L366.929 566.442C367.066 566.437 367.202 566.456 367.332 566.498L380.306 570.656C380.598 570.749 380.914 570.726 381.19 570.591L389.4 566.556C389.562 566.476 389.741 566.435 389.922 566.435H395.343C395.836 566.435 396.278 566.128 396.452 565.666L399.59 557.312C399.673 557.091 399.688 556.85 399.634 556.621L392.662 527.358C392.627 527.209 392.621 527.056 392.644 526.905L399.687 480.753C399.707 480.621 399.706 480.491 399.681 480.36C398.478 473.968 395.793 460.419 394.386 455.808C392.99 451.234 396.05 442.542 397.843 438.555C397.908 438.411 397.943 438.26 397.948 438.102L399.713 382.445C399.716 382.349 399.707 382.252 399.687 382.158L394.409 357.662C394.394 357.591 394.385 357.518 394.383 357.445L392.615 292.289C392.611 292.133 392.638 291.977 392.694 291.831L397.861 278.43C397.913 278.294 397.94 278.149 397.94 278.003V228.116C397.94 228.042 397.934 227.971 397.92 227.899C397.322 224.703 396.163 218.088 396.163 216.361C396.163 214.69 398.33 209.338 399.555 206.539C399.661 206.299 399.684 206.033 399.622 205.779L394.426 184.502C394.4 184.393 394.389 184.28 394.394 184.168L399.714 65.7918C399.716 65.734 399.715 65.6761 399.709 65.6186L396.184 30.9733C396.17 30.839 396.18 30.7034 396.212 30.5723L399.413 17.462C399.577 16.7898 399.133 16.1206 398.449 16.0111L386.294 14.0632C386.16 14.0418 386.032 13.9978 385.913 13.9332L381.48 11.5123C381.047 11.2761 380.513 11.3324 380.139 11.6539L375.516 15.6302C375.114 15.9758 374.532 16.0125 374.09 15.7201L367.537 11.385C367.279 11.2149 366.966 11.1517 366.663 11.209L351.842 14.0103C351.769 14.024 351.696 14.0309 351.622 14.0309H315.004L299.128 16.198C299.049 16.2088 298.969 16.2116 298.889 16.2062L266.427 14.0309C258.528 13.0605 241.901 11.1197 238.584 11.1197C235.288 11.1197 213.002 14.473 202.064 16.1817C201.922 16.2038 201.783 16.1992 201.643 16.1698L177.759 11.16C177.632 11.1333 177.501 11.1278 177.371 11.1436L136.314 16.1878C136.172 16.2053 136.027 16.1967 135.887 16.1624L115.606 11.1791C115.447 11.1399 115.281 11.1343 115.119 11.1628L98.9416 14.002C98.8324 14.0212 98.7211 14.0249 98.6109 14.0131L71.6867 11.1368C71.5804 11.1254 71.473 11.1285 71.3675 11.146L41.0079 16.1669C40.8198 16.1981 40.6269 16.1833 40.4457 16.1239Z" fill="#48BBFE" fill-opacity="0.41"/>
<path d="M359.381 12.7046L393.035 0.902277C393.767 0.645585 394.539 1.14664 394.601 1.91785L395.909 18.3831C395.918 18.502 395.91 18.6219 395.883 18.7385L391.503 38.1359C391.477 38.2526 391.468 38.3724 391.478 38.4914L395.784 92.7039C395.79 92.7763 395.789 92.8491 395.781 92.9214L390.064 147.418C390.057 147.492 390.056 147.567 390.062 147.64L397.912 241.99C397.998 248.054 397.475 261.216 394.689 265.352C391.945 269.427 393.602 275.622 394.821 278.332C394.857 278.413 394.885 278.495 394.903 278.582L398.651 296.394C398.675 296.509 398.682 296.626 398.672 296.743L395.62 330.845L400.635 433.961C400.639 434.054 400.633 434.147 400.616 434.239L397.377 451.425C397.35 451.568 397.349 451.715 397.376 451.858L401.158 472.496C401.179 472.611 401.183 472.728 401.17 472.844L398.042 500.277C398.033 500.357 398.032 500.438 398.04 500.518L402.224 546.671C402.237 546.818 402.223 546.966 402.182 547.108L398.963 558.241C398.894 558.483 398.749 558.696 398.55 558.852L388.621 566.602C388.418 566.761 388.169 566.849 387.913 566.855L370.724 567.223C370.601 567.226 370.479 567.209 370.361 567.174L357.03 563.206C356.913 563.171 356.791 563.154 356.668 563.157L320.352 563.936C320.205 563.939 320.06 563.969 319.924 564.025L309.336 568.384C309.079 568.49 308.793 568.503 308.529 568.419L285.429 561.145C285.234 561.084 285.026 561.074 284.826 561.117L266.34 565.073C266.266 565.089 266.192 565.097 266.117 565.099L206.035 566.387C205.889 566.391 205.744 566.421 205.608 566.477L195.003 570.843C194.756 570.944 194.483 570.96 194.227 570.887L180.668 567.031C180.457 566.97 180.232 566.971 180.019 567.031L163.99 571.612C163.878 571.644 163.763 571.659 163.647 571.658L40.7652 569.939C40.6284 569.937 40.4922 569.959 40.3625 570.003L27.4503 574.439C27.1597 574.539 26.8426 574.522 26.5655 574.393L18.2994 570.535C18.1357 570.458 17.9564 570.421 17.7753 570.425L12.3555 570.541C11.862 570.551 11.4159 570.255 11.2357 569.797L7.97906 561.511C7.89293 561.292 7.87438 561.051 7.92582 560.821L14.4804 531.413C14.5136 531.263 14.5178 531.109 14.4927 530.959L6.79456 484.965C6.77255 484.834 6.77214 484.704 6.79496 484.572C7.90735 478.156 10.3989 464.551 11.7406 459.911C13.0716 455.307 9.88871 446.682 8.03881 442.734C7.97212 442.592 7.93488 442.441 7.92764 442.284L5.37224 386.673C5.36782 386.577 5.37517 386.48 5.39415 386.385L10.3232 361.78C10.3376 361.708 10.3453 361.635 10.3463 361.562L11.1883 296.379C11.1903 296.222 11.1612 296.067 11.1028 295.922L5.7463 282.634C5.69195 282.499 5.66298 282.355 5.66091 282.209L4.95223 232.329C4.95119 232.256 4.95659 232.185 4.96908 232.112C5.52217 228.904 6.58672 222.265 6.56218 220.538C6.53845 218.868 4.29617 213.563 3.03095 210.791C2.92247 210.553 2.89532 210.287 2.95385 210.032L7.84633 188.647C7.87145 188.537 7.88083 188.424 7.8742 188.312L0.873304 70.068C0.86989 70.0103 0.870716 69.9524 0.875726 69.8948L3.90803 35.1792C3.91979 35.0446 3.90847 34.9092 3.8746 34.7788L0.487529 21.7393C0.313832 21.0707 0.74865 20.3919 1.43023 20.2678L13.5565 18.0595C13.6894 18.0353 13.8174 17.9886 13.9348 17.9214L18.3335 15.4058C18.7627 15.1604 19.2971 15.2053 19.6754 15.5186L24.355 19.3954C24.7616 19.7322 25.3444 19.7564 25.7821 19.4546L32.2727 14.9796C32.5274 14.804 32.8399 14.7341 33.1436 14.7849L48.0021 17.268C48.0748 17.2801 48.1486 17.2855 48.2224 17.2839L84.8348 16.4987L100.739 18.3251C100.818 18.3343 100.898 18.3353 100.978 18.3282L133.404 15.4572C141.288 14.3176 157.885 12.0205 161.202 11.9494C164.498 11.8787 186.828 14.7537 197.788 16.2276C197.93 16.2467 198.069 16.2391 198.209 16.2067L222.018 10.6856C222.145 10.6561 222.276 10.6478 222.405 10.6609L263.528 14.8239C263.671 14.8384 263.816 14.8267 263.955 14.7894L284.162 9.37205C284.321 9.32943 284.487 9.32029 284.649 9.34522L300.864 11.8372C300.973 11.854 301.085 11.8554 301.195 11.8412L328.074 8.38802C328.18 8.37438 328.287 8.37517 328.393 8.39034L358.82 12.7596C359.008 12.7867 359.201 12.7678 359.381 12.7046Z" fill="url(#paint0_linear_1171_3579)" fill-opacity="0.41"/>
<path d="M49.5751 562.412L16.8356 573.949C16.1032 574.207 15.3293 573.706 15.2682 572.934L13.9958 556.848C13.9864 556.73 13.9949 556.611 14.021 556.494L18.2855 537.507C18.3116 537.391 18.3201 537.271 18.3107 537.153L14.1117 484.072C14.106 484 14.1069 483.928 14.1145 483.856L19.6801 430.497C19.6877 430.423 19.6885 430.349 19.6824 430.276L12.0278 337.89C11.9434 331.952 12.453 319.064 15.1662 315.014C17.8388 311.025 16.2253 304.961 15.0379 302.307C15.0018 302.226 14.9748 302.144 14.9567 302.058L11.3046 284.62C11.2807 284.506 11.2738 284.389 11.2841 284.273L14.2551 250.884L9.36186 149.914C9.35738 149.822 9.36374 149.729 9.38081 149.638L12.5341 132.815C12.5608 132.673 12.5612 132.527 12.5352 132.384L8.84992 112.182C8.82913 112.068 8.8252 111.951 8.83828 111.836L11.8826 84.9785C11.8917 84.8987 11.8926 84.8182 11.8854 84.7384L7.78593 39.3292L7.78593 24.4924C7.78593 23.6288 8.6797 23.0489 9.46442 23.4032L13.4095 25.1844C13.8096 25.3649 14.2783 25.3082 14.6268 25.0368L21.0499 20.0363C21.2526 19.8785 21.5005 19.7902 21.7564 19.7847L38.488 19.4259C38.6113 19.4233 38.7341 19.4399 38.852 19.4752L51.8294 23.3593C51.9473 23.3947 52.0701 23.4113 52.1933 23.4086L87.5625 22.6501C87.7097 22.647 87.8553 22.6164 87.9917 22.56L98.2887 18.3004C98.5471 18.1935 98.8342 18.181 99.0996 18.265L121.584 25.3835C121.78 25.4455 121.989 25.4553 122.19 25.412L140.187 21.543C140.261 21.5272 140.336 21.5184 140.411 21.5168L198.936 20.2618C199.083 20.2586 199.229 20.228 199.365 20.1716L209.679 15.9049C209.927 15.8024 210.202 15.7865 210.459 15.86L223.647 19.6317C223.86 19.6926 224.086 19.6924 224.299 19.6311L239.9 15.1516C240.013 15.1194 240.129 15.1039 240.245 15.1055L359.952 16.8015C360.089 16.8034 360.226 16.7814 360.356 16.7364L372.916 12.4015C373.208 12.3007 373.527 12.3174 373.805 12.4479L381.838 16.217C382.003 16.294 382.183 16.3321 382.365 16.3282L387.614 16.2156C388.108 16.205 388.555 16.5024 388.734 16.9617L391.899 25.0522C391.984 25.2705 392.003 25.5097 391.952 25.7394L385.57 54.5254C385.537 54.6739 385.533 54.8272 385.558 54.9769L393.06 100.008C393.082 100.139 393.082 100.268 393.06 100.399C391.976 106.683 389.55 120.001 388.243 124.544C386.947 129.05 390.047 137.492 391.849 141.359C391.916 141.501 391.952 141.651 391.96 141.808L394.453 196.256C394.457 196.352 394.45 196.448 394.431 196.542L389.632 220.631C389.617 220.703 389.61 220.775 389.609 220.848L388.793 284.67C388.791 284.826 388.82 284.98 388.878 285.124L394.095 298.13C394.148 298.264 394.177 298.407 394.179 298.553L394.873 347.39C394.874 347.463 394.869 347.533 394.856 347.605C394.318 350.748 393.281 357.247 393.305 358.937C393.329 360.571 395.51 365.76 396.744 368.476C396.851 368.713 396.878 368.977 396.82 369.232L392.057 390.162C392.032 390.272 392.023 390.384 392.03 390.496L398.858 506.276C398.862 506.334 398.861 506.391 398.856 506.448L395.905 540.437C395.893 540.571 395.904 540.706 395.938 540.835L399.231 553.577C399.404 554.245 398.97 554.923 398.289 555.047L386.511 557.202C386.378 557.226 386.249 557.273 386.132 557.341L381.873 559.789C381.442 560.036 380.905 559.991 380.526 559.675L376.004 555.91C375.597 555.571 375.012 555.546 374.573 555.85L368.283 560.209C368.027 560.386 367.713 560.456 367.408 560.405L352.95 557.975C352.877 557.962 352.803 557.957 352.728 557.959L317.062 558.723L301.571 556.934C301.491 556.924 301.41 556.923 301.33 556.931L269.743 559.738C262.062 560.853 245.893 563.101 242.661 563.17C239.451 563.239 217.704 560.422 207.023 558.978C206.88 558.959 206.74 558.966 206.6 558.999L183.416 564.4C183.289 564.429 183.157 564.438 183.027 564.425L142.975 560.345C142.832 560.33 142.686 560.342 142.547 560.38L122.874 565.679C122.714 565.722 122.548 565.731 122.385 565.706L106.599 563.266C106.489 563.249 106.377 563.248 106.267 563.262L80.0897 566.639C79.9831 566.653 79.8751 566.652 79.7689 566.637L50.1391 562.357C49.9497 562.33 49.7562 562.349 49.5751 562.412Z" fill="url(#paint1_linear_1171_3579)" fill-opacity="0.41"/>
<defs>
<linearGradient id="paint0_linear_1171_3579" x1="201.339" y1="0.834473" x2="201.339" y2="574.503" gradientUnits="userSpaceOnUse">
<stop stop-color="#48BBFE"/>
<stop offset="1" stop-color="#2B7098"/>
</linearGradient>
<linearGradient id="paint1_linear_1171_3579" x1="199.098" y1="15.9816" x2="210.984" y2="570.264" gradientUnits="userSpaceOnUse">
<stop stop-color="#4857FE"/>
<stop offset="1" stop-color="#982B7B"/>
</linearGradient>
</defs>
</svg>

<svg xmlns="http://www.w3.org/2000/svg" width="403" height="575" fill="none"><path fill="#48BBFE" fill-opacity=".41" d="M40.446 16.124 6.629 5.045a1.185 1.185 0 0 0-1.55 1.049l-1.075 16.49q-.01.181.03.356l4.656 19.3q.042.175.03.355L5.184 96.892q-.006.109.006.217l6.49 54.366q.014.111.006.222l-6.509 94.504c0 6.065.711 19.214 3.555 23.289 2.802 4.016 1.232 10.245.052 12.981a1.2 1.2 0 0 0-.078.251l-3.495 17.89a1.2 1.2 0 0 0-.015.35l3.536 34.031-3.55 103.208q-.004.14.023.277l3.483 17.114c.029.143.031.29.007.433l-3.488 20.716q-.03.173-.007.348l3.516 27.362q.015.12.007.241l-3.529 46.236q-.016.222.049.436l3.376 11.062c.073.24.221.451.422.602l10.038 7.536c.205.154.455.237.711.237h17.192q.186 0 .361-.056l13.273-4.254q.176-.056.362-.056H87.3q.22 0 .428.08l10.648 4.131c.26.1.545.107.808.018l22.993-7.768c.194-.066.402-.08.603-.042l18.539 3.559q.111.022.224.022h60.09q.222 0 .429.08l10.665 4.138c.249.096.522.106.777.028l13.502-4.147c.211-.065.436-.07.649-.013l16.092 4.236q.17.044.343.038l122.839-4.353a1.2 1.2 0 0 1 .403.056l12.974 4.158c.292.093.608.07.884-.065l8.21-4.035a1.2 1.2 0 0 1 .522-.121h5.421c.493 0 .935-.307 1.109-.769l3.138-8.354a1.2 1.2 0 0 0 .044-.691l-6.972-29.263a1.2 1.2 0 0 1-.018-.453l7.043-46.152q.03-.197-.006-.393c-1.203-6.392-3.888-19.941-5.295-24.552-1.396-4.574 1.664-13.266 3.457-17.253q.098-.216.105-.453l1.765-55.657a1.2 1.2 0 0 0-.026-.287l-5.278-24.496a1.2 1.2 0 0 1-.026-.217l-1.768-65.156a1.2 1.2 0 0 1 .079-.458l5.167-13.401c.052-.136.079-.281.079-.427v-49.887q0-.11-.02-.217c-.598-3.196-1.757-9.811-1.757-11.538 0-1.671 2.167-7.023 3.392-9.822.106-.24.129-.506.067-.76l-5.196-21.277a1.2 1.2 0 0 1-.032-.334l5.32-118.376a1 1 0 0 0-.005-.173l-3.525-34.646a1.2 1.2 0 0 1 .028-.4l3.201-13.111a1.185 1.185 0 0 0-.964-1.45l-12.155-1.949a1.2 1.2 0 0 1-.381-.13l-4.433-2.42a1.19 1.19 0 0 0-1.341.14l-4.623 3.977a1.184 1.184 0 0 1-1.426.09l-6.553-4.335a1.19 1.19 0 0 0-.874-.176l-14.821 2.801q-.11.02-.22.02h-36.618l-15.876 2.168q-.119.016-.239.008l-32.462-2.175c-7.899-.97-24.526-2.911-27.843-2.911-3.296 0-25.582 3.353-36.52 5.062a1.2 1.2 0 0 1-.421-.012l-23.884-5.01a1.2 1.2 0 0 0-.388-.016l-41.057 5.044a1.2 1.2 0 0 1-.427-.026l-20.281-4.983a1.2 1.2 0 0 0-.487-.016l-16.177 2.839q-.165.03-.331.011l-26.924-2.876a1.2 1.2 0 0 0-.32.009l-30.36 5.02a1.2 1.2 0 0 1-.561-.042"/><path fill="url(#a)" fill-opacity=".41" d="M359.381 12.705 393.035.902a1.176 1.176 0 0 1 1.566 1.016l1.308 16.465a1.2 1.2 0 0 1-.026.355l-4.38 19.398a1.2 1.2 0 0 0-.025.355l4.306 54.213a1 1 0 0 1-.003.217l-5.717 54.497a1.3 1.3 0 0 0-.002.222l7.85 94.35c.086 6.064-.437 19.226-3.223 23.362-2.744 4.075-1.087 10.27.132 12.98q.055.12.082.25l3.748 17.812q.036.173.021.349l-3.052 34.102 5.015 103.116q.006.14-.019.278l-3.239 17.186c-.027.143-.028.29-.001.433l3.782 20.638q.031.173.012.348l-3.128 27.433q-.014.12-.002.241l4.184 46.153q.02.222-.042.437l-3.219 11.133a1.2 1.2 0 0 1-.413.611l-9.929 7.75a1.2 1.2 0 0 1-.708.253l-17.189.368a1.2 1.2 0 0 1-.363-.049l-13.331-3.968a1.2 1.2 0 0 0-.362-.049l-36.316.779a1.2 1.2 0 0 0-.428.089l-10.588 4.359a1.18 1.18 0 0 1-.807.035l-23.1-7.274a1.2 1.2 0 0 0-.603-.028l-18.486 3.956a1.2 1.2 0 0 1-.223.026l-60.082 1.288a1.2 1.2 0 0 0-.427.09l-10.605 4.366c-.247.101-.52.117-.776.044l-13.559-3.856a1.2 1.2 0 0 0-.649 0l-16.029 4.581a1.2 1.2 0 0 1-.343.046l-122.882-1.719a1.2 1.2 0 0 0-.403.064l-12.912 4.436c-.29.1-.607.083-.884-.046l-8.267-3.858a1.2 1.2 0 0 0-.524-.11l-5.42.116c-.493.01-.94-.286-1.12-.744l-3.256-8.286a1.2 1.2 0 0 1-.053-.69l6.554-29.408a1.2 1.2 0 0 0 .013-.454l-7.698-45.994a1.2 1.2 0 0 1 0-.393c1.112-6.416 3.604-20.021 4.946-24.661 1.33-4.604-1.852-13.229-3.702-17.177a1.2 1.2 0 0 1-.111-.45l-2.556-55.611a1.2 1.2 0 0 1 .022-.288l4.93-24.605q.02-.108.022-.218l.842-65.183a1.2 1.2 0 0 0-.085-.457l-5.357-13.288a1.2 1.2 0 0 1-.085-.425l-.709-49.88a1 1 0 0 1 .017-.217c.553-3.208 1.618-9.847 1.593-11.574-.024-1.67-2.266-6.975-3.531-9.747a1.2 1.2 0 0 1-.077-.759l4.892-21.385a1.2 1.2 0 0 0 .028-.335l-7-118.244a1 1 0 0 1 .002-.173l3.032-34.716c.012-.134 0-.27-.033-.4L.488 21.739a1.194 1.194 0 0 1 .942-1.471l12.127-2.209q.2-.036.378-.138l4.399-2.515c.429-.246.963-.2 1.341.113l4.68 3.876c.407.337.99.361 1.427.06l6.49-4.475a1.2 1.2 0 0 1 .872-.195l14.858 2.483q.11.018.22.016l36.613-.785 15.904 1.826q.119.014.239.003l32.426-2.87c7.884-1.14 24.481-3.437 27.798-3.509 3.296-.07 25.626 2.805 36.586 4.279q.212.028.421-.021l23.809-5.521q.192-.045.387-.025l41.123 4.163c.143.014.288.003.427-.035l20.207-5.417c.159-.043.325-.052.487-.027l16.215 2.492q.165.025.331.004l26.879-3.453q.16-.02.319.002l30.427 4.37c.188.027.381.008.561-.055"/><path fill="url(#b)" fill-opacity=".41" d="m49.575 562.412-32.74 11.537a1.176 1.176 0 0 1-1.567-1.015l-1.272-16.086q-.014-.178.025-.354l4.264-18.987q.04-.176.026-.354l-4.2-53.081a1 1 0 0 1 .003-.216l5.566-53.359q.012-.111.002-.221l-7.654-92.386c-.085-5.938.425-18.826 3.138-22.876 2.673-3.989 1.06-10.053-.128-12.707a1.2 1.2 0 0 1-.081-.249l-3.652-17.438a1.2 1.2 0 0 1-.02-.347l2.97-33.389-4.893-100.97a1.2 1.2 0 0 1 .019-.276l3.153-16.823q.04-.215.001-.431L8.85 112.182a1.2 1.2 0 0 1-.012-.346l3.045-26.857q.014-.12.002-.24l-4.1-45.41V24.492c0-.863.895-1.443 1.68-1.089l3.944 1.781c.4.18.87.124 1.218-.147l6.423-5c.203-.159.45-.247.706-.252l16.732-.36q.186-.003.364.05l12.977 3.884q.178.053.364.05l35.37-.759a1.2 1.2 0 0 0 .429-.09l10.297-4.26c.258-.107.545-.119.81-.035l22.485 7.119c.196.061.405.071.606.028l17.997-3.869q.111-.024.224-.026l58.525-1.255a1.2 1.2 0 0 0 .429-.09l10.314-4.267c.248-.103.523-.118.78-.045l13.188 3.772c.213.06.439.06.652 0l15.601-4.48q.17-.05.345-.046l119.707 1.696q.207.002.404-.066l12.56-4.334c.292-.101.611-.085.889.046l8.033 3.769c.165.077.345.115.527.111l5.249-.112c.494-.011.941.286 1.12.746l3.165 8.09c.085.218.104.458.053.687l-6.382 28.786a1.2 1.2 0 0 0-.012.452l7.502 45.031q.033.195 0 .391c-1.084 6.284-3.51 19.602-4.817 24.145-1.296 4.506 1.804 12.948 3.606 16.815q.1.213.111.449l2.493 54.448q.006.145-.022.286l-4.799 24.089a1 1 0 0 0-.023.217l-.816 63.822c-.002.156.027.31.085.454l5.217 13.006q.08.202.084.423l.694 48.837q.002.108-.017.215c-.538 3.143-1.575 9.642-1.551 11.332.024 1.634 2.205 6.823 3.439 9.539.107.237.134.501.076.756l-4.763 20.93q-.038.166-.027.334l6.828 115.78q.006.087-.002.172l-2.951 33.989q-.018.203.033.398l3.293 12.742a1.193 1.193 0 0 1-.942 1.47l-11.778 2.155a1.2 1.2 0 0 0-.379.139l-4.259 2.448a1.18 1.18 0 0 1-1.347-.114l-4.522-3.765a1.18 1.18 0 0 0-1.431-.06l-6.29 4.359c-.256.177-.57.247-.875.196l-14.458-2.43a1 1 0 0 0-.222-.016l-35.666.764-15.491-1.789a1 1 0 0 0-.241-.003l-31.587 2.807c-7.681 1.115-23.85 3.363-27.082 3.432-3.21.069-24.957-2.748-35.638-4.192a1.2 1.2 0 0 0-.423.021l-23.184 5.401a1.2 1.2 0 0 1-.389.025l-40.052-4.08a1.2 1.2 0 0 0-.428.035l-19.673 5.299c-.16.043-.326.052-.489.027l-15.786-2.44a1.2 1.2 0 0 0-.332-.004l-26.177 3.377a1.2 1.2 0 0 1-.321-.002l-29.63-4.28a1.2 1.2 0 0 0-.564.055"/><defs><linearGradient id="a" x1="201.339" x2="201.339" y1=".834" y2="574.503" gradientUnits="userSpaceOnUse"><stop stop-color="#48BBFE"/><stop offset="1" stop-color="#2B7098"/></linearGradient><linearGradient id="b" x1="199.098" x2="210.984" y1="15.982" y2="570.264" gradientUnits="userSpaceOnUse"><stop stop-color="#4857FE"/><stop offset="1" stop-color="#982B7B"/></linearGradient></defs></svg>
